X:92
T:Soldiers Cloak,The. JGi.092
O:Tealby,Lincolnshire
M:6/8
L:1/8
Q:3/8=110
S:Joshua Gibbons MS,1823,Tealby,Lincs.
R:jig
Z:VMP/R.Greig, 2009
K:D
F/G/|A2A AFA|d2ef2d|ecA A2B|(G3F2)F/G/|
A2A AFA|d2ef2d|ecA ABc|d2z2z:|
|:d/e/|fef def|gbge2f|dcd BAB|(G3F2)F/G/|
A2A AFA|d3f2d|ecA ABc|d2z2z:|

